public/images/icons/box_shop.svg

<svg width="50" height="47" viewBox="0 0 50 47" fill="none" xmlns="http://www.w3.org/2000/svg">
<g clip-path="url(#clip0_150_4576)" filter="url(#filter0_d_150_4576)">
<path d="M6.72046 13.7871V33.4745L23.7702 43.3181V23.6308L6.72046 13.7871Z" fill="#C1C1C1"/>
<path d="M23.7704 3.94336L6.72058 13.787L23.7704 23.6307V43.3181L40.8199 33.4744V13.787L23.7704 3.94336Z" fill="#A3A3A3"/>
<path d="M1.29529 14.4924L23.7704 27.4682L35.0077 14.2713L12.5328 1.29541L1.29529 14.4924Z" fill="#D8D8D8"/>
<path d="M23.7704 1.51646L12.5328 1.29541L35.0077 14.2713L46.245 14.4924L23.7704 1.51646Z" fill="#C1C1C1"/>
<path d="M5.04112 16.6532C5.04112 17.6854 4.2048 18.0477 3.16386 17.4466C2.1316 16.8506 1.29529 15.5224 1.29529 14.4902L5.04112 16.6532Z" fill="#A3A3A3"/>
<path d="M8.78697 18.8163C8.78697 19.8485 7.95065 20.2108 6.90971 19.6097C5.87745 19.0137 5.04114 17.6855 5.04114 16.6533L8.78697 18.8163Z" fill="#E2E2E2"/>
<path d="M12.5327 20.9789C12.5327 22.0111 11.6964 22.3734 10.6554 21.7723C9.62318 21.1763 8.78687 19.8481 8.78687 18.8159L12.5327 20.9789Z" fill="#A3A3A3"/>
<path d="M16.2785 23.142C16.2785 24.1741 15.4422 24.5365 14.4013 23.9354C13.369 23.3394 12.5327 22.0111 12.5327 20.979L16.2785 23.142Z" fill="#E2E2E2"/>
<path d="M20.0244 25.3051C20.0244 26.3372 19.1881 26.6996 18.1471 26.0985C17.1149 25.5024 16.2786 24.1742 16.2786 23.1421L20.0244 25.3051Z" fill="#A3A3A3"/>
<path d="M23.7702 27.4682C23.7702 28.5003 22.9339 28.8627 21.893 28.2616C20.8607 27.6655 20.0244 26.3373 20.0244 25.3052L23.7702 27.4682Z" fill="#E2E2E2"/>
<path d="M6.72046 13.7871V33.4745L23.7702 43.3181V23.6308L6.72046 13.7871Z" fill="#C1C1C1"/>
<path d="M23.7704 3.94336L6.72058 13.787L23.7704 23.6307V43.3181L40.8199 33.4744V13.787L23.7704 3.94336Z" fill="#A3A3A3"/>
<path d="M1.29529 14.4924L23.7704 27.4682L35.0077 14.2713L12.5328 1.29541L1.29529 14.4924Z" fill="#D8D8D8"/>
<path d="M23.7704 1.51646L12.5328 1.29541L35.0077 14.2713L46.245 14.4924L23.7704 1.51646Z" fill="#C1C1C1"/>
<path d="M5.04112 16.6532C5.04112 17.6854 4.2048 18.0477 3.16386 17.4466C2.1316 16.8506 1.29529 15.5224 1.29529 14.4902L5.04112 16.6532Z" fill="#A3A3A3"/>
<path d="M8.78697 18.8163C8.78697 19.8485 7.95065 20.2108 6.90971 19.6097C5.87745 19.0137 5.04114 17.6855 5.04114 16.6533L8.78697 18.8163Z" fill="#E2E2E2"/>
<path d="M12.5327 20.9789C12.5327 22.0111 11.6964 22.3734 10.6554 21.7723C9.62318 21.1763 8.78687 19.8481 8.78687 18.8159L12.5327 20.9789Z" fill="#A3A3A3"/>
<path d="M16.2785 23.142C16.2785 24.1741 15.4422 24.5365 14.4013 23.9354C13.369 23.3394 12.5327 22.0111 12.5327 20.979L16.2785 23.142Z" fill="#E2E2E2"/>
<path d="M20.0244 25.3051C20.0244 26.3372 19.1881 26.6996 18.1471 26.0985C17.1149 25.5024 16.2786 24.1742 16.2786 23.1421L20.0244 25.3051Z" fill="#A3A3A3"/>
<path d="M23.7702 27.4682C23.7702 28.5003 22.9339 28.8627 21.893 28.2616C20.8607 27.6655 20.0244 26.3373 20.0244 25.3052L23.7702 27.4682Z" fill="#E2E2E2"/>
<path d="M23.7734 27.4695V43.3195L6.72339 33.4695V19.4795" stroke="#636363" stroke-width="0.590621" stroke-linejoin="round"/>
<path d="M6.72339 17.6296V17.6196" stroke="#636363" stroke-width="0.590621" stroke-linejoin="round"/>
<path d="M40.8234 14.3794V33.4694L23.7734 43.3194V27.4694" stroke="#636363" stroke-width="0.590621" stroke-linejoin="round"/>
<path d="M1.29529 14.4924L23.7704 27.4682L35.0077 14.2713L12.5328 1.29541L1.29529 14.4924Z" stroke="#636363" stroke-width="0.590621" stroke-linejoin="round"/>
<path d="M23.7704 1.51646L12.5328 1.29541L35.0077 14.2713L46.245 14.4924L23.7704 1.51646Z" stroke="#636363" stroke-width="0.590621" stroke-linejoin="round"/>
<path d="M5.04112 16.6532C5.04112 17.6854 4.2048 18.0477 3.16386 17.4466C2.1316 16.8506 1.29529 15.5224 1.29529 14.4902L5.04112 16.6532Z" stroke="#636363" stroke-width="0.590621" stroke-linejoin="round"/>
<path d="M8.78697 18.8163C8.78697 19.8485 7.95065 20.2108 6.90971 19.6097C5.87745 19.0137 5.04114 17.6855 5.04114 16.6533L8.78697 18.8163Z" stroke="#636363" stroke-width="0.590621" stroke-linejoin="round"/>
<path d="M12.5327 20.9789C12.5327 22.0111 11.6964 22.3734 10.6554 21.7723C9.62318 21.1763 8.78687 19.8481 8.78687 18.8159L12.5327 20.9789Z" stroke="#636363" stroke-width="0.590621" stroke-linejoin="round"/>
<path d="M16.2785 23.142C16.2785 24.1741 15.4422 24.5365 14.4013 23.9354C13.369 23.3394 12.5327 22.0111 12.5327 20.979L16.2785 23.142Z" stroke="#636363" stroke-width="0.590621" stroke-linejoin="round"/>
<path d="M20.0244 25.3051C20.0244 26.3372 19.1881 26.6996 18.1471 26.0985C17.1149 25.5024 16.2786 24.1742 16.2786 23.1421L20.0244 25.3051Z" stroke="#636363" stroke-width="0.590621" stroke-linejoin="round"/>
<path d="M23.7702 27.4682C23.7702 28.5003 22.9339 28.8627 21.893 28.2616C20.8607 27.6655 20.0244 26.3373 20.0244 25.3052L23.7702 27.4682Z" stroke="#636363" stroke-width="0.590621" stroke-linejoin="round"/>
<g style="mix-blend-mode:overlay">
<path d="M46.3921 14.2363L23.9175 1.26074C23.8745 1.23633 23.8257 1.22266 23.7759 1.22168L12.5386 1C12.5278 1.00116 12.522 1.00757 12.512 1.00928C12.4761 1.01178 12.4478 1.02783 12.415 1.04303C12.386 1.05591 12.3574 1.06842 12.3352 1.08813C12.3274 1.09558 12.3154 1.09503 12.3081 1.10352L1.0708 14.3008C1.06519 14.3075 1.06372 14.3165 1.05859 14.3236C1.04687 14.3405 1.03882 14.3575 1.03076 14.3765C1.0188 14.4036 1.01196 14.4305 1.00854 14.46C1.00732 14.4706 1.00049 14.4794 1.00049 14.4902C1.00049 14.5052 1.00439 14.5212 1.00464 14.5363C1.00488 14.5382 1.00415 14.54 1.00439 14.542C1.00464 14.5429 1.00537 14.5436 1.00537 14.5446C1.03223 15.683 1.90259 17.0599 3.01611 17.7021C3.39404 17.9209 3.76807 18.0322 4.104 18.0322C4.33447 18.0322 4.54736 17.9795 4.73096 17.873C4.81714 17.8232 4.89136 17.7595 4.95996 17.6904C5.23926 18.4307 5.77368 19.1544 6.42822 19.6393V33.4697C6.42822 33.5752 6.48389 33.6729 6.57568 33.7256L23.6255 43.5752C23.6714 43.6016 23.7222 43.6143 23.7729 43.6143C23.8237 43.6143 23.8745 43.6016 23.9204 43.5752L40.9712 33.7256C41.063 33.6729 41.1187 33.5752 41.1187 33.4697V14.6865L46.2388 14.7871H46.2446C46.3774 14.7871 46.4937 14.6992 46.5288 14.5713C46.5649 14.4414 46.5093 14.3037 46.3921 14.2363Z" fill="#5086FF"/>
</g>
</g>
<defs>
<filter id="filter0_d_150_4576" x="0" y="0" width="49.5403" height="46.6147" filterUnits="userSpaceOnUse" color-interpolation-filters="sRGB">
<feFlood flood-opacity="0" result="BackgroundImageFix"/>
<feColorMatrix in="SourceAlpha" type="matrix" values="0 0 0 0 0 0 0 0 0 0 0 0 0 0 0 0 0 0 127 0" result="hardAlpha"/>
<feOffset dx="1" dy="1"/>
<feGaussianBlur stdDeviation="1"/>
<feColorMatrix type="matrix" values="0 0 0 0 0 0 0 0 0 0 0 0 0 0 0 0 0 0 0.12 0"/>
<feBlend mode="normal" in2="BackgroundImageFix" result="effect1_dropShadow_150_4576"/>
<feBlend mode="normal" in="SourceGraphic" in2="effect1_dropShadow_150_4576" result="shape"/>
</filter>
<clipPath id="clip0_150_4576">
<rect width="45.5403" height="42.6147" fill="white" transform="translate(1 1)"/>
</clipPath>
</defs>
</svg>

<svg xmlns="http://www.w3.org/2000/svg" width="50" height="47" fill="none"><g clip-path="url(#a)" filter="url(#b)"><path fill="#C1C1C1" d="M6.72 13.787v19.687l17.05 9.844V23.631L6.72 13.787Z"/><path fill="#A3A3A3" d="M23.77 3.943 6.72 13.787l17.05 9.844v19.687l17.05-9.844V13.787L23.77 3.943Z"/><path fill="#D8D8D8" d="M1.295 14.492 23.77 27.468l11.238-13.197L12.533 1.295 1.295 14.492Z"/><path fill="#C1C1C1" d="m23.77 1.516-11.237-.22L35.008 14.27l11.237.221L23.77 1.516Z"/><path fill="#A3A3A3" d="M5.041 16.653c0 1.032-.836 1.395-1.877.794-1.032-.596-1.869-1.925-1.869-2.957l3.746 2.163Z"/><path fill="#E2E2E2" d="M8.787 18.816c0 1.033-.836 1.395-1.877.794-1.033-.596-1.869-1.924-1.869-2.957l3.746 2.163Z"/><path fill="#A3A3A3" d="M12.533 20.979c0 1.032-.837 1.394-1.878.793-1.032-.596-1.868-1.924-1.868-2.956l3.746 2.163Z"/><path fill="#E2E2E2" d="M16.279 23.142c0 1.032-.837 1.395-1.878.793-1.032-.596-1.868-1.924-1.868-2.956l3.746 2.163Z"/><path fill="#A3A3A3" d="M20.024 25.305c0 1.032-.836 1.395-1.877.794-1.032-.597-1.868-1.925-1.868-2.957l3.745 2.163Z"/><path fill="#E2E2E2" d="M23.77 27.468c0 1.032-.836 1.395-1.877.794-1.032-.596-1.869-1.925-1.869-2.957l3.746 2.163Z"/><path fill="#C1C1C1" d="M6.72 13.787v19.687l17.05 9.844V23.631L6.72 13.787Z"/><path fill="#A3A3A3" d="M23.77 3.943 6.72 13.787l17.05 9.844v19.687l17.05-9.844V13.787L23.77 3.943Z"/><path fill="#D8D8D8" d="M1.295 14.492 23.77 27.468l11.238-13.197L12.533 1.295 1.295 14.492Z"/><path fill="#C1C1C1" d="m23.77 1.516-11.237-.22L35.008 14.27l11.237.221L23.77 1.516Z"/><path fill="#A3A3A3" d="M5.041 16.653c0 1.032-.836 1.395-1.877.794-1.032-.596-1.869-1.925-1.869-2.957l3.746 2.163Z"/><path fill="#E2E2E2" d="M8.787 18.816c0 1.033-.836 1.395-1.877.794-1.033-.596-1.869-1.924-1.869-2.957l3.746 2.163Z"/><path fill="#A3A3A3" d="M12.533 20.979c0 1.032-.837 1.394-1.878.793-1.032-.596-1.868-1.924-1.868-2.956l3.746 2.163Z"/><path fill="#E2E2E2" d="M16.279 23.142c0 1.032-.837 1.395-1.878.793-1.032-.596-1.868-1.924-1.868-2.956l3.746 2.163Z"/><path fill="#A3A3A3" d="M20.024 25.305c0 1.032-.836 1.395-1.877.794-1.032-.597-1.868-1.925-1.868-2.957l3.745 2.163Z"/><path fill="#E2E2E2" d="M23.77 27.468c0 1.032-.836 1.395-1.877.794-1.032-.596-1.869-1.925-1.869-2.957l3.746 2.163Z"/><path stroke="#636363" stroke-linejoin="round" stroke-width=".591" d="M23.773 27.47v15.85l-17.05-9.85V19.48M6.723 17.63v-.01M40.823 14.38v19.09l-17.05 9.85V27.47M1.295 14.492 23.77 27.468l11.238-13.197L12.533 1.295 1.295 14.492Z"/><path stroke="#636363" stroke-linejoin="round" stroke-width=".591" d="m23.77 1.516-11.237-.22L35.008 14.27l11.237.221L23.77 1.516ZM5.041 16.653c0 1.032-.836 1.395-1.877.794-1.032-.596-1.869-1.925-1.869-2.957l3.746 2.163ZM8.787 18.816c0 1.033-.836 1.395-1.877.794-1.033-.596-1.869-1.924-1.869-2.957l3.746 2.163Z"/><path stroke="#636363" stroke-linejoin="round" stroke-width=".591" d="M12.533 20.979c0 1.032-.837 1.394-1.878.793-1.032-.596-1.868-1.924-1.868-2.956l3.746 2.163ZM16.279 23.142c0 1.032-.837 1.395-1.878.793-1.032-.596-1.868-1.924-1.868-2.956l3.746 2.163ZM20.024 25.305c0 1.032-.836 1.395-1.877.794-1.032-.597-1.868-1.925-1.868-2.957l3.745 2.163Z"/><path stroke="#636363" stroke-linejoin="round" stroke-width=".591" d="M23.77 27.468c0 1.032-.836 1.395-1.877.794-1.032-.596-1.869-1.925-1.869-2.957l3.746 2.163Z"/><path fill="#5086FF" d="M46.392 14.236 23.917 1.261a.3.3 0 0 0-.141-.04L12.539 1c-.011.001-.017.008-.027.01-.036.002-.064.018-.097.033-.029.013-.058.025-.08.045-.008.008-.02.007-.027.016L1.071 14.3c-.006.006-.007.015-.012.023a.283.283 0 0 0-.028.053.282.282 0 0 0-.022.083c-.002.01-.009.02-.009.03 0 .015.004.031.005.046V14.545c.027 1.138.898 2.515 2.011 3.157.378.219.752.33 1.088.33.23 0 .443-.052.627-.159.086-.05.16-.114.229-.183.28.74.814 1.464 1.468 1.95v13.83c0 .105.056.203.148.256l17.05 9.85a.295.295 0 0 0 .294 0l17.051-9.85a.294.294 0 0 0 .148-.256V14.687l5.12.1h.006a.295.295 0 0 0 .148-.55Z" style="mix-blend-mode:overlay"/></g><defs><clipPath id="a"><path fill="#fff" d="M1 1h45.54v42.615H1z"/></clipPath><filter id="b" width="49.54" height="46.615" x="0" y="0" color-interpolation-filters="sRGB" filterUnits="userSpaceOnUse"><feFlood flood-opacity="0" result="BackgroundImageFix"/><feColorMatrix in="SourceAlpha" result="hardAlpha" values="0 0 0 0 0 0 0 0 0 0 0 0 0 0 0 0 0 0 127 0"/><feOffset dx="1" dy="1"/><feGaussianBlur stdDeviation="1"/><feColorMatrix values="0 0 0 0 0 0 0 0 0 0 0 0 0 0 0 0 0 0 0.12 0"/><feBlend in2="BackgroundImageFix" result="effect1_dropShadow_150_4576"/><feBlend in="SourceGraphic" in2="effect1_dropShadow_150_4576" result="shape"/></filter></defs></svg>
